X:1
T:Title
%%score 1 2 3
L:1/8
M:2/2
K:C
V:1 treble nm="Part_1"
V:2 treble-8 nm="Part_2"
V:3 treble-8 nm="Part_3"
V:1
 D8 | C8 | D8 | F8 | G8 | F8 | E4 F4- | F2 D2 D4- | D4 C4 | D8 | z8 | A8- | A8 | G8 | F8 | G8 | %16
 F8 | E8 | F6 E2 | C4 B,2 C2 | D8 || A8 | c8 | d6 c2 | A8 | G8 | A4 B4- | B2 A2 A4- | A4 G4 | A8 | %30
 z8 | A8 | G8 | A8 | G8 | F8 | E8 | F8 | D4 D4- | D4 C4 | D8 | z8 | G8 | G8 | D8 | F8 | D8 | C8 | %48
 z8 | F8 | F8 | E8 | F6 D2 | E2 F2 D4- | D2 C2 C2 B,2 | D8 || A,8 | C8 | D8 | F8 | G6 F2 | D8 | %62
 z8 | C8 | F8 | E8 | D8 | E8 | C6 B,2 | D8 | z8 | F8 | G8 | A8 | G8 | A8 | G8 | E8 | F8 | G8 | F8 | %81
 E8 | D4 D4- | D4 C4 | D8 | G8 | G8 | F8 | G8 | A8 | G8 | F8 | F8 | E4 F4- | F2 D2 D4- | D4 C4 | %96
 D8 || A8 | c8 | d6 c2 | A8 | G8 | A8 | A6 B2 | c4 B4- | B2 A2 A4- | A2 G2 G2 F2 | A8 | z8 | A8 | %110
 A8 | A8 | B8 | c6 B2 | G8 | E8 | F8 | D4 D4- | D2 C2 C2 B,2 | D8 | z8 | C8 | E8 | D8 | G8 | %125
 G6 F2 | A8 | A8 | G8 | F8 | E4 F4- | F2 D2 D4- | D2 C2 C2 B,2 | D8 || C8 | D8 | F8 | E8 | F6 G2 | %139
 A2 _B2 A4- | A2 G2 F2 E2 | E4 G4- | G2 F2 D4- | D2 C2 C2 B,2 | D8 |] %145
V:2
 A8 | G6 F2 | A8 | D8 | d4 B4 | A6 B2 | c4 A4- | A8 | A4 G4 | A8- | A8 | D8- | D8 | z4 G4 | D8 | %15
 d4 _e4- | e2 d2 _B4- | B2 A2 c4 | A4 A4- | A4 G4 | A8 || A8 | F8 | B6 A2 | F8 | C8 | F4 G4- | %27
 G4 A4 | E8 | e4 c4- | c4 B4 | d8 | z8 | c8 | B8 | A4 c4- | c8 | A8 | A4 B4 | G4 F2 G2 | A8- | A8 | %42
 B8 | c8 | A8 | F8 | G8 | C8 | E8 | D8- | D8 | A8 | D8 | B4 A4- | A2 G2 G2 F2 | A8 || A8 | e6 d2 | %58
 B8 | A6 B2 | c8 | A8- | A4 F4 | F8 | D8 | C8 | G8 | c4 B4 | G4 F2 G2 | A8- | A8 | d8 | e4 d2 e2 | %73
 f6 e2 | e8 | c8 | B8 | A4 c4- | c4 A4 | B4 c4 | d4 B2 A2 | c8 | A4 A4- | A2 G2 G2 F2 | A8 | E8 | %86
 z4 G4 | D8 | d4 c4 | e8 | d8 | c8 | A6 B2 | c4 A4- | A4 A4 | G6 F2 | A8 || A8 | F8 | B6 A2 | c8 | %101
 c4 c4 | F4 F4 | F8 | E4 G4- | G4 A4 | E8 | e8- | e8 | z4 c4 | e8 | z4 c4 | d6 e2 | f6 e2 | d8 | %115
 B4 c4 | A8 | z4 B4 | G6 F2 | A8- | A4 B4 | c8 | A8 | D8 | z4 d4- | d4 d4 | e8- | e8 | c4 d4 | c8 | %130
 B4 A4- | A4 F4 | G4 F2 G2 | A8 || F8 | A4 B4 | c8 | A8 | z4 D4 | A4 _B4- | B4 A4 | c8 | _B6 G2 | %143
 G4 F2 G2 | A8 |] %145
V:3
 D8 | E8 | D8 | A8 | G6 E2 | D8 | C4 D4- | D4 F4 | E8 | D8- | D8 | F8- | F8 | _B8 | A8 | G4 _E4 | %16
 D8 | C8 | D4 F4 | E8 | D8 || D8 | A8 | G8 | c8- | c8 | z4 d4- | d4 c4 | B8 | A6 F2 | E8 | D8 | %32
 E8 | F8 | G8 | A8 | A8 | D8 | F4 G4 | E8 | D8- | D8 | z8 | C8 | F8 | A4 c4 | B6 A2 | c8- | c8 | %49
 d8- | d8 | c8 | A8 | G4 F4 | E8 | D8 || A8 | A8 | G8 | D8 | C8 | F8- | F8 | A8- | A8 | c8 | B8 | %67
 A4 G4 | E8 | D8- | D8 | z8 | E8 | D8 | E8 | F8 | G8 | A8- | A8 | G4 E4 | D8 | C8 | D4 F4 | E8 | %84
 D8 | z8 | B8 | A8 | B4 c4- | c4 A4 | B8 | A8 | D8 | C4 D4- | D4 F4 | E8 | D8 || A8 | A8 | G8 | %100
 F8 | c8 | c8 | c8 | e4 d4- | d4 c4 | B8 | A8- | A8 | c8- | c8 | c8 | G8 | F8 | z4 G4- | G4 C4 | %116
 D8 | F4 G4 | E8 | D8- | D8 | A8 | c8 | d8 | B8 | B8 | A8 | z4 c4- | c4 B4 | A8 | G4 F4 | D8 | E8 | %133
 D8 || F8- | F4 G4 | A4 B4 | c8 | A8 | F4 E4 | D8 | C8 | G8 | E8 | D8 |] %145

